X:0499
T:McNeil's Maggot.
M:C|
L:1/8
Q:1/2=104
I: :: :: |:
Z:Jack Campin * www.campin.me.uk * 2009
K:D Mixolydian
defe     d2    dB|AFdF     E/E/E E2|defe     d2    dB|AFdF D/D/D D2::
D/D/D AF D/D/D AF|E/E/E BG E/E/E BG|D/D/D AF D/D/D AF|GBAF D/D/D D2::
abaf     abaf    |gebe     gebe    |abaf     abaf    |edef d/d/d d2:|

